24x24/apps/com.endlessm.photos.svg

<svg xmlns="http://www.w3.org/2000/svg" width="24" height="24" version="1"><path style="opacity:.2" d="M2 16.5v4c0 .554.446 1 1 1h18c.554 0 1-.446 1-1v-4z"/><path style="fill:#17191e" d="M2 15.95V20c0 .554.446 1 1 1h18c.554 0 1-.446 1-1v-4.05z"/><path style="fill:#ffaa3b" d="M3 3c-.554 0-1 .446-1 1v11.95h20V4c0-.554-.446-1-1-1z"/><path style="fill:#603e3f" d="M16.5 5 14 9.5 11 8l-4 3-2-.5L3.5 12l-1.5.488V16h20V7.413L21 6l-1.5 1.5z"/><path style="opacity:.2" d="M2 16h20v.5H2z"/><path style="opacity:.2;fill:#f4f4f7" d="M3 3c-.554 0-1 .446-1 1v.5c0-.554.446-1 1-1h18c.554 0 1 .446 1 1V4c0-.554-.446-1-1-1z"/><path style="opacity:.2" d="M16.5 5 14 9.5 11 8l-4 3-2-.5L3.5 12l-1.5.488v.5l1.5-.488L5 11l2 .5 4-3 3 1.5 2.5-4.5 3 2.5L21 6.5l1 1.413v-.5L21 6l-1.5 1.5z"/><rect style="opacity:.3" width="14" height="1" x="5" y="18" rx=".5" ry=".5"/><circle style="opacity:.2" cx="14.5" cy="19" r="1.5"/><circle style="fill:#f4f4f7" cx="14.5" cy="18.5" r="1.5"/></svg>

<svg xmlns="http://www.w3.org/2000/svg" width="24" height="24" version="1">
 <path style="opacity:0.2" d="m 2,16.5 v 0 4 c 0,0.554 0.446,1 1,1 h 18 c 0.554,0 1,-0.446 1,-1 v -4 0 z"/>
 <path style="fill:#17191e" d="m 2,15.95 v 0 4.05 c 0,0.554 0.446,1 1,1 h 18 c 0.554,0 1,-0.446 1,-1 v -4.05 0 z"/>
 <path style="fill:#ffaa3b" d="M 3,3 C 2.446,3 2,3.446 2,4 V 15.95 H 22 V 4 C 22,3.446 21.554,3 21,3 Z"/>
 <path style="fill:#603e3f" d="M 16.5,5 14,9.5 11,8 7,11 5,10.5 3.5,12 2,12.488281 V 16 H 22 V 7.413086 L 21,6 19.5,7.5 Z"/>
 <rect style="opacity:0.2" width="20" height=".5" x="2" y="16"/>
 <path style="opacity:0.2;fill:#f4f4f7" d="M 3,3 C 2.446,3 2,3.446 2,4 v 0.5 c 0,-0.554 0.446,-1 1,-1 h 18 c 0.554,0 1,0.446 1,1 V 4 C 22,3.446 21.554,3 21,3 Z"/>
 <path style="opacity:0.2" d="M 16.5,5 14,9.5 11,8 7,11 5,10.5 3.5,12 2,12.488281 v 0.5 L 3.5,12.5 5,11 l 2,0.5 4,-3 3,1.5 2.5,-4.5 3,2.5 1.5,-1.5 1,1.413086 v -0.5 L 21,6 19.5,7.5 Z"/>
 <rect style="opacity:0.3" width="14" height="1" x="5" y="18" rx=".5" ry=".5"/>
 <circle style="opacity:0.2" cx="14.5" cy="19" r="1.5"/>
 <circle style="fill:#f4f4f7" cx="14.5" cy="18.5" r="1.5"/>
</svg>
